build/system/ArrowRightOutline.svg

<svg xmlns="http://www.w3.org/2000/svg" fill="none" viewBox="0 0 24 24" focusable="false"><path d="M0 0H24V24H0z"/><path fill="#74767B" fill-rule="evenodd" d="M11.0201 18.1482C11.1501 18.2882 11.3201 18.3582 11.5001 18.3582C11.6601 18.3582 11.8101 18.3082 11.9401 18.1882L17.9801 12.6982C18.2901 12.4182 18.2901 11.9382 17.9801 11.6582L11.9401 6.16817C11.6701 5.92817 11.2601 5.94817 11.0201 6.20817C10.7801 6.47817 10.7901 6.88817 11.0601 7.12817L15.8957 11.5282L5.0001 11.5282C4.64111 11.5282 4.3501 11.8192 4.3501 12.1782C4.3501 12.5372 4.64111 12.8282 5.0001 12.8282L15.8957 12.8282L11.0601 17.2282C10.8001 17.4682 10.7801 17.8782 11.0201 18.1482Z"/></svg>

<svg xmlns="http://www.w3.org/2000/svg" fill="none" viewBox="0 0 24 24" focusable="false"><path fill="#74767B" fill-rule="evenodd" d="M11.02 18.14c.12.14.3.21.48.21.16 0 .31-.05.43-.17l6.05-5.49c.31-.28.31-.76 0-1.04l-6.05-5.49a.646.646 0 0 0-.91.04.65.65 0 0 0 .04.92l4.83 4.4H5c-.36 0-.65.29-.65.65s.29.65.65.65h10.89l-4.83 4.4c-.26.24-.28.65-.04.92"/></svg>
